src/22/panel/synergy-panel-ok.svg

<svg xmlns="http://www.w3.org/2000/svg" width="22" height="22" version="1.1">
 <defs>
  <style id="current-color-scheme" type="text/css">
   .ColorScheme-Text { color:#bebebe; } .ColorScheme-Highlight { color:#5294e2; }
  </style>
 </defs>
 <path style="opacity:0.3;fill:currentColor" class="ColorScheme-Text" d="M 11,3 C 6.581722,3 3,6.581722 3,11 L 4.5,13 6,11 C 6,8.2385763 8.2385763,6 11,6 L 9,4.5 Z"/>
 <path style="fill:currentColor" class="ColorScheme-Text" d="M 11 3 L 9 4.5 L 11 6 A 5 5 0 0 1 16 11 L 17.5 9 L 19 11 A 8 8 0 0 0 11 3 z M 3 11 A 8 8 0 0 0 11 19 L 13 17.5 L 11 16 A 5 5 0 0 1 6 11 L 4.5 13 L 3 11 z"/>
 <path style="fill:currentColor" class="ColorScheme-Text" d="m 16.766196,11.00526 c -0.265312,0.01593 -0.534044,0.05939 -0.800781,0.13086 -2.1339,0.5718 -3.399825,2.764537 -2.828125,4.898437 0.57174,2.1338 2.764537,3.399925 4.898437,2.828125 2.1339,-0.5718 3.399825,-2.764537 2.828125,-4.898437 -0.500272,-1.867075 -2.24047,-3.070476 -4.097656,-2.958985 z m 1.710937,1.988282 a 0.50005,0.50005 0 0 1 0.470704,0.728515 l -1.5,3 a 0.50005,0.50005 0 0 1 -0.72461,0.19336 l -1.5,-1 a 0.50005,0.50005 0 1 1 0.554688,-0.832032 l 1.029297,0.685547 1.246093,-2.492187 a 0.50005,0.50005 0 0 1 0.423828,-0.283203 z"/>
</svg>

<svg xmlns="http://www.w3.org/2000/svg" width="22" height="22"><defs><style id="current-color-scheme" type="text/css">.ColorScheme-Text{color:#bebebe}</style></defs><path class="ColorScheme-Text" d="M11 3a8 8 0 0 0-8 8l1.5 2L6 11a5 5 0 0 1 5-5L9 4.5z" opacity=".3" fill="currentColor"/><path class="ColorScheme-Text" d="M11 3L9 4.5 11 6a5 5 0 0 1 5 5l1.5-2 1.5 2a8 8 0 0 0-8-8zm-8 8a8 8 0 0 0 8 8l2-1.5-2-1.5a5 5 0 0 1-5-5l-1.5 2L3 11zM16.766 11.005a4 4 0 1 0 0 0zm1.711 1.989a.5.5 0 0 1 .47.728l-1.5 3a.5.5 0 0 1-.724.193l-1.5-1a.5.5 0 1 1 .555-.832l1.03.686 1.245-2.492a.5.5 0 0 1 .424-.283z" fill="currentColor"/></svg>
